X: 537
T: Whistle at Her
C: Martin & Roger Edwards 
%D:
R: reel, hornpipe
S: https://lesters-tune-a-day.blogspot.com/2022/11/tune-537-whistle-at-her.html
M: 4/4
L: 1/8
K: G
Bc | d2 de dcBc | d2 de dc B2 | c2 Ac B2 GB | A2 F2 G2 Bc | 
d2 de dcBc | d2 de dc B2 | c2 Ac B2 GB | A2 F2 G4 |]
[|\
AGFE D2 D2 | GABc d2 B2 | c2 Ac B2 GB | A2 F2 G4 |
AGFE D2 D2 | GABc d2 B2 | c2 Ac B2 GB | A2 F2 G2 Bc |]
%%begintext align
%% The 'Whistle at her' tune is actually a stylised
%% version of 'Wind the Bobbin Up'. We (Martin and
%% Roger Edwards) didn't know what to call it but
%% it ended up with a name inspired by my mum's
%% broad Lancashire accent. She pronounced
%% 'we shall have to' (eg 'hurry up' or 'be going')
%% as 'we's'll atter'. The name stuck but transformed
%% into 'Whistle at Her'.
%%endtext
